public/icons/close.svg

<svg viewBox="0 0 512 512" fill="none" xmlns="http://www.w3.org/2000/svg">
<path d="M256 512C323.895 512 389.01 485.029 437.019 437.019C485.029 389.01 512 323.895 512 256C512 188.105 485.029 122.99 437.019 74.9807C389.01 26.9714 323.895 0 256 0C188.105 0 122.99 26.9714 74.9807 74.9807C26.9714 122.99 0 188.105 0 256C0 323.895 26.9714 389.01 74.9807 437.019C122.99 485.029 188.105 512 256 512ZM175 175C184.4 165.6 199.6 165.6 208.9 175L255.9 222L302.9 175C312.3 165.6 327.5 165.6 336.8 175C346.1 184.4 346.2 199.6 336.8 208.9L289.8 255.9L336.8 302.9C346.2 312.3 346.2 327.5 336.8 336.8C327.4 346.1 312.2 346.2 302.9 336.8L255.9 289.8L208.9 336.8C199.5 346.2 184.3 346.2 175 336.8C165.7 327.4 165.6 312.2 175 302.9L222 255.9L175 208.9C165.6 199.5 165.6 184.3 175 175Z" fill="black"/>
</svg>

<svg xmlns="http://www.w3.org/2000/svg" viewBox="0 0 512 512"><!--!Font Awesome Free 6.6.0 by @fontawesome - https://fontawesome.com License - https://fontawesome.com/license/free Copyright 2024 Fonticons, Inc.--><path d="M256 512A256 256 0 1 0 256 0a256 256 0 1 0 0 512zM175 175c9.4-9.4 24.6-9.4 33.9 0l47 47 47-47c9.4-9.4 24.6-9.4 33.9 0s9.4 24.6 0 33.9l-47 47 47 47c9.4 9.4 9.4 24.6 0 33.9s-24.6 9.4-33.9 0l-47-47-47 47c-9.4 9.4-24.6 9.4-33.9 0s-9.4-24.6 0-33.9l47-47-47-47c-9.4-9.4-9.4-24.6 0-33.9z"/></svg>
